!!!Genre:	Freylekhs
!!!Mode:	Minor
!!!Edition:	2015
!!!Listening/dance:	dance
!!!Free rhythm?:	No
!!!Secondary Modes:	All minor
!!!One_Mode:	yes
**kern
*I"P1
*clefG2
*k[b-e-]
*g:
*M2/4
*>A
=1
16dLL
16d
16d
16gJJ
8b-TL
8gJ
=2
16gLL
16a
16b-
16ddJJ
8cc#XL
8b-J
=3
(16qqa/LL
16qqb-/JJ
8aL)
8gJ
8ccnL
16b-L
16aJJ
=4
8gL
8gJ
4b-
=5:|!
2g
=6||
*>B
(16qqb-/LL
16qqcc/JJ
8ddL)
8b-J
8b-L
16b-L
16ccJJ
=7
8b-L
8b-J
4b-
=8
16aLL
16b-J
8gJ
8gL
8gJ
=9
16aLL
16b-J
8gJ
4g
=10
16dLL
16dJJ
4g
8b-
=11
16aLL
16b-JJ
4cc
16b-LL
16aJJ
=12
8gL
8gJ
8ccL
16b-L
16aJJ
=13
4g
4g
==
*-
